src/assets/outline/FtxToken.svg

<svg width="24" height="24" viewBox="0 0 24 24"  xmlns="http://www.w3.org/2000/svg">
<path d="M21 7.75H9C8.04 7.75 7.25 6.96 7.25 6V3C7.25 2.04 8.04 1.25 9 1.25H21C21.96 1.25 22.75 2.04 22.75 3V6C22.75 6.96 21.96 7.75 21 7.75ZM9 2.75C8.86 2.75 8.75 2.86 8.75 3V6C8.75 6.14 8.86 6.25 9 6.25H21C21.14 6.25 21.25 6.14 21.25 6V3C21.25 2.86 21.14 2.75 21 2.75H9Z" />
<path d="M12 22.75H7C6.59 22.75 6.25 22.41 6.25 22V17C6.25 16.59 6.59 16.25 7 16.25H12C12.41 16.25 12.75 16.59 12.75 17V22C12.75 22.41 12.41 22.75 12 22.75ZM7.75 21.25H11.25V17.75H7.75V21.25Z" />
<path d="M7 15.25H2C1.59 15.25 1.25 14.91 1.25 14.5V9.5C1.25 9.09 1.59 8.75 2 8.75H7C7.41 8.75 7.75 9.09 7.75 9.5V14.5C7.75 14.91 7.41 15.25 7 15.25ZM2.75 13.75H6.25V10.25H2.75V13.75Z" />
<path d="M18 15.1106H9.5C9.09 15.1106 8.75 14.7706 8.75 14.3606V9.64062C8.75 9.23063 9.09 8.89062 9.5 8.89062H18C18.41 8.89062 18.75 9.23063 18.75 9.64062V14.3606C18.75 14.7806 18.41 15.1106 18 15.1106ZM10.25 13.6106H17.25V10.3906H10.25V13.6106Z" />
</svg>

<?xml version="1.0" encoding="UTF-8"?>
<svg width="24" height="24" viewBox="0 0 24 24" xmlns="http://www.w3.org/2000/svg">
 <path d="m21 7.75h-12c-0.96 0-1.75-0.79-1.75-1.75v-3c0-0.96 0.79-1.75 1.75-1.75h12c0.96 0 1.75 0.79 1.75 1.75v3c0 0.96-0.79 1.75-1.75 1.75zm-12-5c-0.14 0-0.25 0.11-0.25 0.25v3c0 0.14 0.11 0.25 0.25 0.25h12c0.14 0 0.25-0.11 0.25-0.25v-3c0-0.14-0.11-0.25-0.25-0.25h-12z"/>
 <path d="m12 22.75h-5c-0.41 0-0.75-0.34-0.75-0.75v-5c0-0.41 0.34-0.75 0.75-0.75h5c0.41 0 0.75 0.34 0.75 0.75v5c0 0.41-0.34 0.75-0.75 0.75zm-4.25-1.5h3.5v-3.5h-3.5v3.5z"/>
 <path d="m7 15.25h-5c-0.41 0-0.75-0.34-0.75-0.75v-5c0-0.41 0.34-0.75 0.75-0.75h5c0.41 0 0.75 0.34 0.75 0.75v5c0 0.41-0.34 0.75-0.75 0.75zm-4.25-1.5h3.5v-3.5h-3.5v3.5z"/>
 <path d="m18 15.111h-8.5c-0.41 0-0.75-0.34-0.75-0.75v-4.72c0-0.40999 0.34-0.75 0.75-0.75h8.5c0.41 0 0.75 0.34001 0.75 0.75v4.72c0 0.42-0.34 0.75-0.75 0.75zm-7.75-1.5h7v-3.22h-7v3.22z"/>
</svg>
